dist/svg/pause.svg

<!-- Generated by Trend Micro Style Portal -->
<svg version="1.1" xmlns="http://www.w3.org/2000/svg" width="16" height="16" viewBox="0 0 16 16">
  <title>pause</title>
  <path fill="rgb(34,34,34)" d="M3 3h4v10h-4v-10zM9 3h4v10h-4v-10z"></path>
</svg>

<svg width="16" height="16" viewBox="0 0 16 16" fill="rgb(34, 34, 34)" xmlns="http://www.w3.org/2000/svg"><title>pause</title><path d="M3 3H7V13H3V3ZM9 3H13V13H9V3Z" fill="rgb(34, 34, 34)" fill-opacity="1.00"/></svg>
